!!!OTL: 456. An das Echo. / [Mel. fuer Glasharmonika 1788.]
!!!ARE: Europa, Mitteleuropa, Deutschland
!!!SCT: B0456
!!!TXL: @@DE
!!!YEM: Copyright 1995, estate of Helmut Schaffrath.
**kern	**text
*ICvox	*
*Ivox	*
*clefG2	*
*M2/4	*
*k[f#]	*
*G:	*
!LO:TX:a:t=Ʒiemlich langſam.	!
{16eeL	Jch
16ddJ	.
=1	=1
8.dd	kla-
16b	-ge
8g	hier,
16eeL	dir
16ddJ	.
=2	=2
8.dd	E-
16b	-cho
8a}	dir,
{16ddL	die
16bJ	.
=3	=3
8g	Lei-
8g	-den
16aL	mei-
16gJ	.
16aL	-ner
16bJ	.
=4	=4
4g	Bruſt.
8r}	.
{16ddL	Wo
16bJ	.
=5	=5
8.a	iſt
16cc	wohl
8.b	ſonſt
16dd	ein
=6	=6
16ddL	ſanf-
16ccJ	.
16aL	-ter
16f#J	.
8g}	Freund,
{16ddL	der
16bJ	.
=7	=7
8.a	mit
16cc	in
8.b	mei-
16dd	-ne
=8	=8
16ddL	Thrä-
16ccJ	.
16aL	-nen
16f#J	.
8g}	weint?
{16eeL	Wo
16ddJ	.
=9	=9
8.dd	find'
16b	ich
8g	Ruh'?
16eeL	Ver-
16ddJ	.
=10	=10
8.dd	-klär-
16b	-te
8a}	du,
{16ddL	dir
16bJ	.
=11	=11
8g	iſt
8g	mein
16aL	Leid
16gJ	.
16aL	be-
16bJ	.
=12	=12
4g	-wußt.
8r}	.
==	==
!!!AGN: Liebes - Lied, Leid, Klage
!!!GTL: Liebeslieder - Liebesleid
!!!ONB: ESAC (Essen Associative Code) Database: BOEHME
!!!AMT: simple duple
!!!AIN: vox
!!!EED: Helmut Schaffrath
!!!EEV: 1.0
!!@@COMMENT:"Aus der Anleitung ʒum Selbſtunterricht auf der Harmonika" von Joh. Chr. Müller. Leipʒig.
!!1788. Mitgetheilt von K. F. Becker, Lieder und Weiſen. II. Abth. S. 72. Daher auch in Erk's
!!Liederſchatʒ III, S. 88. (Leipʒig. Peters. )"
!!@@END:
!!!URL-scan: https://archive.org/details/BoehmeVtLieder1895/page/n367/mode/2up
!!!ENC: Anna Maria Matuszewska
!!!EEV: 2024/09/07
*-	*-
